X:241
T: Yallow Haird Laddy
N: O'Farrell's Pocket Companion v.3 (Sky ed. p.115)
N: "Scotch"
M: 3/4
L: 1/8
R: waltz
Q: 180
K: D
D>E| F2 A2 B>c| d3e f2| A2 BAGF| F2E2D>E|
F2 A2 B>c| d>c de {e}f2|1 A>B AF ED/E/| D4 :|
[2 Ad gf ed/e/ | d4 ||
d>e| f2 gfed| c2 ecBA| B>c dBAF| F2 E2 D>E|
F2 A2 B>c| d>c de {e}f2|1 A>B AF ED/E/| D4 :|
[2 Ad gf ed/e/ | d4 ||
